X:1
T:The Train that Carried My Girl From Town
M:4/4
L:1/4
K:D
 d/2d/2| d3 d-| d2 d B| d d2B/2-A/2| z2 d B| d d2 B-|
M:3/4
 A A A|
M:4/4
 F3/2 F3/2- E| D4| F4| F2 F E| E E/2E/2 E2| F D2 D-| D3||
